; generated by PrusaSlicer 2.9.2 on 2025-10-22 at 10:43:01 UTC

; 

; external perimeters extrusion width = 0.42mm
; perimeters extrusion width = 0.44mm
; infill extrusion width = 0.44mm
; solid infill extrusion width = 0.44mm
; top infill extrusion width = 0.40mm
; first layer extrusion width = 0.42mm


; printing object ЛЦМК000002.00.00.00.00.02.stl id:0 copy 0
; stop printing object ЛЦМК000002.00.00.00.00.02.stl id:0 copy 0

;TYPE:Custom
G90 ; use absolute coordinates
M83 ; extruder relative mode
M140 S70 ; set final bed temp
M104 S150 ; set temporary nozzle temp to prevent oozing during homing
G4 S30 ; allow partial nozzle warmup
G28 ; home all axis
G1 Z50 F240
G1 X7 Y10 F3000
M300 P300 S200 ; sound buzzer to say bed levelling is done
M300 P300 S0 ; pause sound so two beeps can play
M300 P300 S200 ; sound buzzer to say bed levelling is done
M104 S245 ; set final nozzle temp
M190 S70 ; wait for bed temp to stabilize
M109 S245 ; wait for nozzle temp to stabilize
G1 Z0.28 F240
G92 E0
G1 Y140 E10 F1500 ; prime the nozzle
G1 X6 F5000
G92 E0
G1 Y10 E10 F1200 ; prime the nozzle
G92 E0
G21 ; set units to millimeters
G90 ; use absolute coordinates
M83 ; use relative distances for extrusion
; Filament gcode
M107
;LAYER_CHANGE
;Z:0.2
;HEIGHT:0.2
G1 E-5 F3600
G1 Z.2 F9000
G1 X89.672 Y96.522
G1 Z.2
G1 E5 F2400
M204 P500
;TYPE:Skirt/Brim
;WIDTH:0.42
G1 F1200
G1 X91.747 Y95.855 E.06492
G1 X112.253 Y95.855 E.6108
G1 X113.883 Y96.25 E.04996
G1 X115.153 Y97.346 E.04997
G1 X115.819 Y99.421 E.06491
G1 X115.819 Y104.579 E.15364
G1 X115.424 Y106.209 E.04996
G1 X114.328 Y107.478 E.04995
G1 X112.253 Y108.145 E.06492
G1 X91.747 Y108.145 E.6108
G1 X90.117 Y107.75 E.04996
G1 X88.847 Y106.654 E.04997
G1 X88.181 Y104.579 E.06491
G1 X88.181 Y99.421 E.15364
G1 X88.576 Y97.791 E.04996
G1 X89.632 Y96.567 E.04815
G1 X89.929 Y96.845 F9000
G1 F1200
G1 X90.036 Y96.73 E.00468
G1 X91.747 Y96.232 E.05308
G1 X112.253 Y96.232 E.6108
G1 X113.788 Y96.626 E.0472
G1 X114.944 Y97.71 E.0472
G1 X115.442 Y99.421 E.05308
G1 X115.442 Y104.579 E.15364
G1 X115.048 Y106.114 E.0472
G1 X113.964 Y107.27 E.0472
G1 X112.253 Y107.768 E.05308
G1 X91.747 Y107.768 E.6108
G1 X90.212 Y107.374 E.0472
G1 X89.056 Y106.29 E.0472
G1 X88.558 Y104.579 E.05308
G1 X88.558 Y99.421 E.15364
G1 X88.952 Y97.886 E.0472
G1 X89.888 Y96.889 E.04073
G1 E-3.5 F3600
;WIPE_START
G1 F7200
G1 X89.929 Y96.845 E-.02857
G1 X90.036 Y96.73 E-.07461
G1 X91.747 Y96.232 E-.84645
G1 X92.906 Y96.232 E-.55037
;WIPE_END
; printing object ЛЦМК000002.00.00.00.00.02.stl id:0 copy 0
G1 X92.811 Y100.485 F9000
G1 E5 F2400
;TYPE:Perimeter
;WIDTH:0.419999
G1 F1200
G1 X111.189 Y100.485 E.54742
G1 X111.189 Y102 E.04513
G1 X111.189 Y103.515 E.04513
G1 X92.811 Y103.515 E.54742
G1 X92.811 Y100.545 E.08847
G1 X92.434 Y100.108 F9000
G1 F1200
G1 X111.566 Y100.108 E.56988
G1 X111.566 Y102 E.05636
G1 X111.566 Y103.892 E.05636
G1 X92.434 Y103.892 E.56988
G1 X92.434 Y100.168 E.11093
G1 X92.057 Y99.731 F9000
;TYPE:External perimeter
G1 F1200
G1 X111.943 Y99.731 E.59233
G1 X111.943 Y102 E.06759
G1 X111.943 Y104.269 E.06759
G1 X92.057 Y104.269 E.59233
G1 X92.057 Y99.791 E.13338
G1 E-3.5 F3600
;WIPE_START
G1 F7200
G1 X92.057 Y99.731 E-.0285
G1 X95.155 Y99.731 E-1.4715
;WIPE_END
G1 X111.068 Y101.376 F9000
G1 E5 F2400
;TYPE:Solid infill
;WIDTH:0.423679
G1 F1200
G1 X110.468 Y100.775 E.02554
G1 X109.929 Y100.775 E.01621
G1 X110.899 Y101.745 E.04126
G1 X110.899 Y102.283 E.01618
G1 X109.391 Y100.775 E.06414
G1 X108.853 Y100.775 E.01618
G1 X110.899 Y102.822 E.08705
G1 X110.899 Y103.225 E.01212
G1 X110.763 Y103.225 E.00409
G1 X108.314 Y100.775 E.10419
G1 X107.776 Y100.775 E.01618
G1 X110.225 Y103.225 E.10419
G1 X109.686 Y103.225 E.01621
G1 X107.237 Y100.775 E.10419
G1 X106.699 Y100.775 E.01618
G1 X109.148 Y103.225 E.10419
G1 X108.609 Y103.225 E.01621
G1 X106.16 Y100.775 E.10419
G1 X105.622 Y100.775 E.01618
G1 X108.071 Y103.225 E.10419
G1 X107.532 Y103.225 E.01621
G1 X105.083 Y100.775 E.10419
G1 X104.545 Y100.775 E.01618
G1 X106.994 Y103.225 E.10419
G1 X106.455 Y103.225 E.01621
G1 X104.006 Y100.775 E.10419
G1 X103.468 Y100.775 E.01618
G1 X105.917 Y103.225 E.10419
G1 X105.378 Y103.225 E.01621
G1 X102.929 Y100.775 E.10419
G1 X102.391 Y100.775 E.01618
G1 X104.84 Y103.225 E.10419
G1 X104.301 Y103.225 E.01621
G1 X101.852 Y100.775 E.10419
G1 X101.314 Y100.775 E.01618
G1 X103.763 Y103.225 E.10419
G1 X103.224 Y103.225 E.01621
G1 X100.775 Y100.775 E.10419
G1 X100.237 Y100.775 E.01618
G1 X102.686 Y103.225 E.10419
G1 X102.148 Y103.225 E.01618
G1 X99.698 Y100.775 E.10421
G1 X99.16 Y100.775 E.01618
G1 X101.609 Y103.225 E.10419
G1 X101.071 Y103.225 E.01618
G1 X98.622 Y100.775 E.10419
G1 X98.083 Y100.775 E.01621
G1 X100.532 Y103.225 E.10419
G1 X99.994 Y103.225 E.01618
G1 X97.545 Y100.775 E.10419
G1 X97.006 Y100.775 E.01621
G1 X99.455 Y103.225 E.10419
G1 X98.917 Y103.225 E.01618
G1 X96.468 Y100.775 E.10419
G1 X95.929 Y100.775 E.01621
G1 X98.378 Y103.225 E.10419
G1 X97.84 Y103.225 E.01618
G1 X95.391 Y100.775 E.10419
G1 X94.852 Y100.775 E.01621
G1 X97.301 Y103.225 E.10419
G1 X96.763 Y103.225 E.01618
G1 X94.314 Y100.775 E.10419
G1 X93.775 Y100.775 E.01621
G1 X96.224 Y103.225 E.10419
G1 X95.686 Y103.225 E.01618
G1 X93.237 Y100.775 E.10419
G1 X93.101 Y100.775 E.00409
G1 X93.101 Y101.179 E.01215
G1 X95.147 Y103.225 E.08703
G1 X94.609 Y103.225 E.01618
G1 X93.101 Y101.717 E.06414
G1 X93.101 Y102.255 E.01618
G1 X94.07 Y103.225 E.04124
G1 X93.532 Y103.225 E.01618
G1 X92.932 Y102.624 E.02554
;LAYER_CHANGE
;Z:0.36
;HEIGHT:0.16
;BEFORE_LAYER_CHANGE
G92 E0
;0.36


G1 E-3.5 F3600
;WIPE_START
G1 F7200
G1 X93.532 Y103.225 E-.40339
G1 X94.07 Y103.225 E-.25555
G1 X93.101 Y102.255 E-.65126
G1 X93.101 Y101.855 E-.1898
;WIPE_END
G1 Z.36 F9000
;AFTER_LAYER_CHANGE
;0.36
; stop printing object ЛЦМК000002.00.00.00.00.02.stl id:0 copy 0
G1 Z.36
G1 X88.181 Y102.624
G1 E5 F2400
;TYPE:Skirt/Brim
;WIDTH:0.42
G1 F1346
G1 X88.181 Y99.421 E.07806
G1 X88.576 Y97.791 E.04088
G1 X89.672 Y96.522 E.04087
G1 X91.747 Y95.855 E.05312
G1 X112.253 Y95.855 E.49977
G1 X113.883 Y96.25 E.04088
G1 X115.153 Y97.346 E.04088
G1 X115.819 Y99.421 E.05311
G1 X115.819 Y104.579 E.12571
G1 X115.424 Y106.209 E.04088
G1 X114.328 Y107.478 E.04087
G1 X112.253 Y108.145 E.05312
G1 X91.747 Y108.145 E.49977
G1 X90.117 Y107.75 E.04088
G1 X88.847 Y106.654 E.04088
G1 X88.181 Y104.579 E.05311
G1 X88.181 Y102.684 E.04618
G1 X88.558 Y102.684 F9000
G1 F1346
G1 X88.558 Y99.421 E.07952
G1 X88.952 Y97.886 E.03862
G1 X90.036 Y96.73 E.03862
G1 X91.747 Y96.232 E.04343
G1 X112.253 Y96.232 E.49977
G1 X113.788 Y96.626 E.03862
G1 X114.944 Y97.71 E.03862
G1 X115.442 Y99.421 E.04343
G1 X115.442 Y104.579 E.12571
G1 X115.048 Y106.114 E.03862
G1 X113.964 Y107.27 E.03862
G1 X112.253 Y107.768 E.04343
G1 X91.747 Y107.768 E.49977
G1 X90.212 Y107.374 E.03862
G1 X89.056 Y106.29 E.03862
G1 X88.558 Y104.579 E.04343
G1 X88.558 Y102.744 E.04472
G1 E-3.5 F3600
;WIPE_START
G1 F7200
G1 X88.558 Y102.684 E-.0285
G1 X88.558 Y99.586 E-1.4715
;WIPE_END
; printing object ЛЦМК000002.00.00.00.00.02.stl id:0 copy 0
G1 X92.758 Y103.568 F9000
G1 E5 F2400
;TYPE:Perimeter
;WIDTH:0.439999
G1 F1346
G1 X92.758 Y100.432 E.08039
G1 X111.242 Y100.432 E.47385
G1 X111.242 Y102 E.0402
G1 X111.242 Y103.568 E.0402
G1 X92.818 Y103.568 E.47231
G1 X92.352 Y103.973 F9000
G1 F1346
G1 X92.352 Y100.027 E.10116
G1 X111.648 Y100.027 E.49466
G1 X111.648 Y102 E.05058
G1 X111.648 Y103.973 E.05058
G1 X92.412 Y103.973 E.49313
G1 X91.957 Y104.369 F9000
;TYPE:External perimeter
;WIDTH:0.419999
G1 F1346
G1 X91.957 Y99.631 E.11547
G1 X112.043 Y99.631 E.48953
G1 X112.043 Y102 E.05774
G1 X112.043 Y104.369 E.05774
G1 X92.017 Y104.369 E.48807
G1 E-3.5 F3600
;WIPE_START
G1 F7200
G1 X91.957 Y104.369 E-.0285
G1 X91.957 Y101.271 E-1.4715
;WIPE_END
G1 X110.727 Y100.745 F9000
G1 E5 F2400
;TYPE:Solid infill
;WIDTH:0.439999
G1 F1346
G1 X93.071 Y100.745 E.45262
G1 X93.071 Y103.255 E.06435
G1 X110.929 Y103.255 E.4578
G1 X110.929 Y100.745 E.06435
G1 X110.524 Y101.15 E.01468
G1 X110.524 Y102.85 E.04358
G1 X93.476 Y102.85 E.43704
G1 X93.476 Y101.15 E.04358
G1 X110.321 Y101.15 E.43183
G1 X110.118 Y101.556 E.01164
G1 X110.118 Y102.444 E.02276
G1 X93.882 Y102.444 E.41622
G1 X93.882 Y101.556 E.02276
G1 X109.915 Y101.556 E.41102
G1 X109.674 Y102 E.01295
;WIDTH:0.51669
G1 X94.326 Y102 E.46784
;LAYER_CHANGE
;Z:0.52
;HEIGHT:0.16
;BEFORE_LAYER_CHANGE
G92 E0
;0.52


G1 E-3.5 F3600
;WIPE_START
G1 F7200
G1 X97.484 Y102 E-1.5
;WIPE_END
G1 Z.52 F9000
;AFTER_LAYER_CHANGE
;0.52
G1 Z.52
G1 X92.758 Y103.568
G1 E5 F2400
;TYPE:Perimeter
;WIDTH:0.439999
G1 F835
G1 X92.758 Y100.432 E.08039
G1 X111.242 Y100.432 E.47385
G1 X111.242 Y102 E.0402
G1 X111.242 Y103.568 E.0402
G1 X92.818 Y103.568 E.47231
G1 X92.352 Y103.973 F9000
G1 F835
G1 X92.352 Y100.027 E.10116
G1 X111.648 Y100.027 E.49466
G1 X111.648 Y102 E.05058
G1 X111.648 Y103.973 E.05058
G1 X92.412 Y103.973 E.49313
G1 X91.957 Y104.369 F9000
;TYPE:External perimeter
;WIDTH:0.419999
G1 F835
G1 X91.957 Y99.631 E.11547
G1 X112.043 Y99.631 E.48953
G1 X112.043 Y102 E.05774
G1 X112.043 Y104.369 E.05774
G1 X92.017 Y104.369 E.48807
G1 X93.071 Y103.255 F9000
;TYPE:Solid infill
;WIDTH:0.439999
G1 F835
G1 X93.071 Y100.745 E.06435
G1 X110.929 Y100.745 E.4578
G1 X110.929 Y103.255 E.06435
G1 X93.273 Y103.255 E.45262
G1 X93.476 Y102.85 E.01161
G1 X93.476 Y101.15 E.04358
G1 X110.524 Y101.15 E.43704
G1 X110.524 Y102.85 E.04358
G1 X93.679 Y102.85 E.43183
G1 X93.882 Y102.444 E.01164
G1 X93.882 Y101.556 E.02276
G1 X110.118 Y101.556 E.41622
G1 X110.118 Y102.444 E.02276
G1 X94.085 Y102.444 E.41102
G1 X94.326 Y102 E.01295
;WIDTH:0.516692
G1 X109.674 Y102 E.46784
M106 S51
;LAYER_CHANGE
;Z:0.68
;HEIGHT:0.16
;BEFORE_LAYER_CHANGE
G92 E0
;0.68


G1 E-3.5 F3600
;WIPE_START
G1 F7200
G1 X106.516 Y102 E-1.5
;WIPE_END
G1 Z.68 F9000
;AFTER_LAYER_CHANGE
;0.68
G1 Z.68
G1 X111.242 Y103.568
G1 E5 F2400
;TYPE:Perimeter
;WIDTH:0.439999
G1 F857
G1 X92.758 Y103.568 E.47385
G1 X92.758 Y100.432 E.08039
G1 X111.242 Y100.432 E.47385
G1 X111.242 Y102 E.0402
G1 X111.242 Y103.508 E.03866
G1 X111.648 Y103.973 F9000
G1 F857
G1 X92.352 Y103.973 E.49466
G1 X92.352 Y100.027 E.10116
G1 X111.648 Y100.027 E.49466
G1 X111.648 Y102 E.05058
G1 X111.648 Y103.913 E.04904
G1 X112.043 Y104.369 F9000
;TYPE:External perimeter
;WIDTH:0.419999
G1 F857
G1 X91.957 Y104.369 E.48953
G1 X91.957 Y99.631 E.11547
G1 X112.043 Y99.631 E.48953
G1 X112.043 Y102 E.05774
G1 X112.043 Y104.309 E.05627
G1 E-3.5 F3600
;WIPE_START
G1 F7200
G1 X112.043 Y104.369 E-.0285
G1 X108.945 Y104.369 E-1.4715
;WIPE_END
G1 X110.727 Y100.745 F9000
G1 E5 F2400
;TYPE:Solid infill
;WIDTH:0.439999
G1 F857
G1 X93.071 Y100.745 E.45262
G1 X93.071 Y103.255 E.06435
G1 X110.929 Y103.255 E.4578
G1 X110.929 Y100.745 E.06435
G1 X110.524 Y101.15 E.01468
G1 X110.524 Y102.85 E.04358
G1 X93.476 Y102.85 E.43704
G1 X93.476 Y101.15 E.04358
G1 X110.321 Y101.15 E.43183
G1 X110.118 Y101.556 E.01164
G1 X110.118 Y102.444 E.02276
G1 X93.882 Y102.444 E.41622
G1 X93.882 Y101.556 E.02276
G1 X109.915 Y101.556 E.41102
G1 X109.674 Y102 E.01295
;WIDTH:0.51669
G1 X94.326 Y102 E.46784
;LAYER_CHANGE
;Z:0.84
;HEIGHT:0.16
;BEFORE_LAYER_CHANGE
G92 E0
;0.84


G1 E-3.5 F3600
;WIPE_START
G1 F7200
G1 X97.484 Y102 E-1.5
;WIPE_END
G1 Z.84 F9000
;AFTER_LAYER_CHANGE
;0.84
G1 Z.84
G1 X92.758 Y103.568
G1 E5 F2400
;TYPE:Perimeter
;WIDTH:0.439999
G1 F835
G1 X92.758 Y100.432 E.08039
G1 X111.242 Y100.432 E.47385
G1 X111.242 Y102 E.0402
G1 X111.242 Y103.568 E.0402
G1 X92.818 Y103.568 E.47231
G1 X92.352 Y103.973 F9000
G1 F835
G1 X92.352 Y100.027 E.10116
G1 X111.648 Y100.027 E.49466
G1 X111.648 Y102 E.05058
G1 X111.648 Y103.973 E.05058
G1 X92.412 Y103.973 E.49313
G1 X91.957 Y104.369 F9000
;TYPE:External perimeter
;WIDTH:0.419999
G1 F835
G1 X91.957 Y99.631 E.11547
G1 X112.043 Y99.631 E.48953
G1 X112.043 Y102 E.05774
G1 X112.043 Y104.369 E.05774
G1 X92.017 Y104.369 E.48807
G1 X93.071 Y103.255 F9000
;TYPE:Solid infill
;WIDTH:0.439999
G1 F835
G1 X93.071 Y100.745 E.06435
G1 X110.929 Y100.745 E.4578
G1 X110.929 Y103.255 E.06435
G1 X93.273 Y103.255 E.45262
G1 X93.476 Y102.85 E.01161
G1 X93.476 Y101.15 E.04358
G1 X110.524 Y101.15 E.43704
G1 X110.524 Y102.85 E.04358
G1 X93.679 Y102.85 E.43183
G1 X93.882 Y102.444 E.01164
G1 X93.882 Y101.556 E.02276
G1 X110.118 Y101.556 E.41622
G1 X110.118 Y102.444 E.02276
G1 X94.085 Y102.444 E.41102
G1 X94.326 Y102 E.01295
;WIDTH:0.516692
G1 X109.674 Y102 E.46784
M106 S127.5
;LAYER_CHANGE
;Z:1
;HEIGHT:0.16
;BEFORE_LAYER_CHANGE
G92 E0
;1


G1 E-3.5 F3600
;WIPE_START
G1 F7200
G1 X106.516 Y102 E-1.5
;WIPE_END
G1 Z1 F9000
;AFTER_LAYER_CHANGE
;1
G1 Z1
G1 X111.242 Y103.568
G1 E5 F2400
;TYPE:Perimeter
;WIDTH:0.439999
G1 F600
G1 X92.758 Y103.568 E.47385
G1 X92.758 Y100.432 E.08039
G1 X111.242 Y100.432 E.47385
G1 X111.242 Y102 E.0402
G1 X111.242 Y103.508 E.03866
G1 X111.648 Y103.973 F9000
G1 F600
G1 X92.352 Y103.973 E.49466
G1 X92.352 Y100.027 E.10116
G1 X111.648 Y100.027 E.49466
G1 X111.648 Y102 E.05058
G1 X111.648 Y103.913 E.04904
G1 X112.043 Y104.369 F9000
;TYPE:External perimeter
;WIDTH:0.419999
G1 F600
G1 X91.957 Y104.369 E.48953
G1 X91.957 Y99.631 E.11547
G1 X112.043 Y99.631 E.48953
G1 X112.043 Y102 E.05774
G1 X112.043 Y104.309 E.05627
G1 E-3.5 F3600
;WIPE_START
G1 F7200
G1 X112.043 Y104.369 E-.0285
G1 X108.945 Y104.369 E-1.4715
;WIPE_END
G1 X110.929 Y100.923 F9000
G1 E5 F2400
;TYPE:Internal infill
;WIDTH:0.44
G1 F600
G1 X110.929 Y103.255 E.05978
G1 X108.394 Y100.745 E.09145
G1 X110.905 Y100.745 E.06437
G1 X108.394 Y103.255 E.09102
G1 X103.255 Y103.255 E.13174
G1 X100.745 Y100.745 E.091
G1 X103.255 Y100.745 E.06435
G1 X100.745 Y103.255 E.091
G1 X95.606 Y103.255 E.13174
G1 X93.095 Y100.745 E.09102
G1 X95.606 Y100.745 E.06437
G1 X93.071 Y103.255 E.09145
G1 X93.071 Y100.923 E.05978
;LAYER_CHANGE
;Z:1.16
;HEIGHT:0.16
;BEFORE_LAYER_CHANGE
G92 E0
;1.16


G1 E-3.5 F3600
;WIPE_START
G1 F7200
G1 X93.071 Y103.255 E-1.1077
G1 X93.658 Y102.674 E-.3923
;WIPE_END
G1 Z1.16 F9000
;AFTER_LAYER_CHANGE
;1.16
G1 Z1.16
G1 X92.758 Y100.432
G1 E5 F2400
;TYPE:Perimeter
;WIDTH:0.439999
G1 F600
G1 X111.242 Y100.432 E.47385
G1 X111.242 Y102 E.0402
G1 X111.242 Y103.568 E.0402
G1 X92.758 Y103.568 E.47385
G1 X92.758 Y100.492 E.07886
G1 X92.352 Y100.027 F9000
G1 F600
G1 X111.648 Y100.027 E.49466
G1 X111.648 Y102 E.05058
G1 X111.648 Y103.973 E.05058
G1 X92.352 Y103.973 E.49466
G1 X92.352 Y100.087 E.09962
G1 X91.957 Y99.631 F9000
;TYPE:External perimeter
;WIDTH:0.419999
G1 F600
G1 X112.043 Y99.631 E.48953
G1 X112.043 Y102 E.05774
G1 X112.043 Y104.369 E.05774
G1 X91.957 Y104.369 E.48953
G1 X91.957 Y99.691 E.11401
G1 X93.071 Y100.923 F9000
;TYPE:Internal infill
;WIDTH:0.44
G1 F600
G1 X93.071 Y103.255 E.05978
G1 X95.606 Y100.745 E.09145
G1 X93.095 Y100.745 E.06437
G1 X95.606 Y103.255 E.09102
G1 X100.745 Y103.255 E.13174
G1 X103.255 Y100.745 E.091
G1 X100.745 Y100.745 E.06435
G1 X103.255 Y103.255 E.091
G1 X108.394 Y103.255 E.13174
G1 X110.905 Y100.745 E.09102
G1 X108.394 Y100.745 E.06437
G1 X110.929 Y103.255 E.09145
G1 X110.929 Y100.923 E.05978
;LAYER_CHANGE
;Z:1.32
;HEIGHT:0.16
;BEFORE_LAYER_CHANGE
G92 E0
;1.32


G1 E-3.5 F3600
;WIPE_START
G1 F7200
G1 X110.929 Y103.255 E-1.1077
G1 X110.342 Y102.674 E-.3923
;WIPE_END
G1 Z1.32 F9000
;AFTER_LAYER_CHANGE
;1.32
G1 Z1.32
G1 X111.242 Y100.432
G1 E5 F2400
;TYPE:Perimeter
;WIDTH:0.439999
G1 F600
G1 X111.242 Y102 E.0402
G1 X111.242 Y103.568 E.0402
G1 X92.758 Y103.568 E.47385
G1 X92.758 Y100.432 E.08039
G1 X111.182 Y100.432 E.47231
G1 X111.648 Y100.027 F9000
G1 F600
G1 X111.648 Y102 E.05058
G1 X111.648 Y103.973 E.05058
G1 X92.352 Y103.973 E.49466
G1 X92.352 Y100.027 E.10116
G1 X111.588 Y100.027 E.49313
G1 X112.043 Y99.631 F9000
;TYPE:External perimeter
;WIDTH:0.419999
G1 F600
G1 X112.043 Y102 E.05774
G1 X112.043 Y104.369 E.05774
G1 X91.957 Y104.369 E.48953
G1 X91.957 Y99.631 E.11547
G1 X111.983 Y99.631 E.48807
G1 X110.929 Y100.923 F9000
;TYPE:Internal infill
;WIDTH:0.44
G1 F600
G1 X110.929 Y103.255 E.05978
G1 X108.394 Y100.745 E.09145
G1 X110.905 Y100.745 E.06437
G1 X108.394 Y103.255 E.09102
G1 X103.255 Y103.255 E.13174
G1 X100.745 Y100.745 E.091
G1 X103.255 Y100.745 E.06435
